X: 33410
T: Quille's
R: reel
M: 4/4
K: Dmajor
D2FA BAFA|d2cd BE3|D2FA BAFA|1 dBAG FDD2:|2 dBAG FDDA||
d2fd Adfd|fgfg eB3|d2fd Adfd|faea f d3|
d2fd Adfd|fgfg eB3|fgfe dedB|ABAG FAd2||

